src/lib/packages/icons/src/assets/line/dollar.svg

<svg width="24" height="24" viewBox="0 0 24 24" fill="none" xmlns="http://www.w3.org/2000/svg">
<path d="M15.54 18.541C14.78 19.301 13.777 19.722 12.71 19.743V21C12.71 21.414 12.374 21.75 11.96 21.75C11.546 21.75 11.21 21.414 11.21 21V19.735C9.18301 19.656 7.504 18.119 7.275 16.084C7.229 15.672 7.525 15.301 7.936 15.255C8.351 15.203 8.719 15.505 8.765 15.916C8.915 17.247 10.035 18.25 11.37 18.25H12.63C13.326 18.25 13.983 17.977 14.479 17.479C14.977 16.982 15.25 16.326 15.25 15.629C15.25 14.428 14.434 13.3821 13.266 13.0861L10.37 12.3669C9.476 12.1399 8.678 11.619 8.119 10.899C7.561 10.192 7.251 9.29302 7.251 8.36902C7.251 6.15202 9.015 4.35101 11.211 4.26501V3C11.211 2.586 11.547 2.25 11.961 2.25C12.375 2.25 12.711 2.586 12.711 3V4.25696C14.774 4.29796 16.494 5.85302 16.726 7.91602C16.772 8.32802 16.476 8.699 16.065 8.745C15.644 8.79399 15.282 8.49498 15.236 8.08398C15.086 6.75298 13.966 5.75 12.631 5.75H11.371C9.926 5.75 8.75101 6.92499 8.75101 8.37C8.75101 8.957 8.946 9.52698 9.299 9.97498C9.658 10.438 10.167 10.769 10.735 10.913L13.632 11.632C15.47 12.098 16.751 13.742 16.751 15.63C16.75 16.727 16.32 17.761 15.54 18.541Z" fill="currentColor"/>
</svg>

<svg xmlns="http://www.w3.org/2000/svg" width="24" height="24" fill="none"><path fill="currentColor" d="M15.54 18.541a4.088 4.088 0 0 1-2.83 1.202V21a.75.75 0 0 1-1.5 0v-1.265a4.113 4.113 0 0 1-3.935-3.651.75.75 0 0 1 .661-.829.744.744 0 0 1 .829.661 2.622 2.622 0 0 0 2.605 2.334h1.26c.696 0 1.353-.273 1.849-.771a2.596 2.596 0 0 0 .771-1.85 2.624 2.624 0 0 0-1.984-2.543l-2.896-.72A4.151 4.151 0 0 1 8.119 10.9a4.098 4.098 0 0 1-.868-2.53c0-2.217 1.764-4.018 3.96-4.104V3a.75.75 0 0 1 1.5 0v1.257a4.117 4.117 0 0 1 4.015 3.659.75.75 0 0 1-.661.829.743.743 0 0 1-.829-.661 2.622 2.622 0 0 0-2.605-2.334h-1.26a2.623 2.623 0 0 0-2.072 4.225c.359.463.868.794 1.436.938l2.897.719a4.124 4.124 0 0 1 3.119 3.998 4.098 4.098 0 0 1-1.211 2.911Z"/></svg>
